layout/images/svg/vk.svg

<svg width="50" height="30" viewBox="0 0 50 30" xmlns="http://www.w3.org/2000/svg"><path d="M42.386 18.327c.293.366.992 1.078 2.103 2.136h.025l.026.027.028.027.052.053c2.45 2.276 4.106 4.192 4.97 5.756.054.087.114.193.174.326.06.127.12.36.18.686.06.332.06.625-.014.885-.066.26-.286.5-.652.718-.36.22-.872.328-1.53.328l-6.668.107c-.42.086-.905.04-1.457-.133-.56-.172-1.012-.365-1.358-.572l-.52-.312c-.518-.366-1.13-.92-1.822-1.67-.692-.746-1.29-1.418-1.784-2.017-.49-.6-1.024-1.1-1.59-1.51-.566-.406-1.05-.54-1.47-.4-.054.014-.12.047-.207.087-.087.046-.233.173-.446.38-.206.205-.392.465-.56.764-.165.307-.312.76-.438 1.36-.134.6-.187 1.27-.174 2.015 0 .26-.027.5-.093.72-.06.212-.12.378-.193.478l-.106.133c-.306.326-.772.52-1.377.572h-2.995c-1.23.067-2.502-.073-3.8-.432-1.304-.353-2.448-.812-3.426-1.378-.98-.565-1.877-1.138-2.682-1.717-.805-.584-1.418-1.083-1.837-1.496l-.652-.625c-.173-.174-.413-.44-.712-.787-.306-.346-.925-1.137-1.863-2.37-.938-1.23-1.857-2.54-2.762-3.93-.898-1.385-1.963-3.222-3.187-5.49-1.223-2.277-2.354-4.64-3.4-7.088-.105-.28-.152-.513-.152-.7 0-.192.02-.332.073-.418l.108-.16c.26-.326.758-.492 1.484-.492l7.134-.054c.213.035.406.095.6.174.192.074.332.154.42.22l.125.08c.28.186.49.466.625.832.353.865.752 1.763 1.198 2.695.453.93.812 1.638 1.072 2.124l.412.75c.506 1.046.992 1.95 1.464 2.71.467.765.886 1.364 1.26 1.783.372.426.74.766 1.084 1.005.346.247.638.367.885.367.24 0 .48-.047.697-.134.04-.013.08-.06.133-.126.053-.074.153-.26.312-.573.153-.312.273-.725.353-1.224.08-.505.16-1.21.246-2.11.09-.904.09-1.988 0-3.253-.03-.698-.11-1.33-.23-1.903-.127-.572-.247-.97-.367-1.198l-.16-.313c-.432-.593-1.17-.965-2.21-1.118-.225-.04-.178-.248.128-.627.3-.333.626-.592.99-.785.92-.453 2.997-.66 6.224-.626 1.424.02 2.595.132 3.52.34.346.085.64.205.872.35.233.148.413.36.532.627.12.272.213.545.273.83.06.286.094.685.094 1.184 0 .506-.013.985-.026 1.438-.02.446-.04 1.06-.067 1.83-.025.78-.04 1.49-.04 2.15 0 .193-.005.56-.025 1.098-.014.54-.02.952-.014 1.244.015.3.04.653.095 1.058.053.406.153.746.3 1.02.145.265.345.478.585.63.138.04.285.074.444.107.153.033.38-.06.68-.287.292-.225.618-.525.984-.897.366-.373.82-.952 1.358-1.744.532-.793 1.124-1.724 1.77-2.802 1.038-1.804 1.97-3.76 2.78-5.856.074-.173.16-.326.267-.46.1-.126.193-.22.287-.272l.1-.08c.033-.013.08-.033.132-.06.054-.027.167-.053.34-.08.173-.026.346-.033.52-.013l7.498-.054c.68-.087 1.232-.067 1.664.066.44.127.705.273.812.426l.153.266c.397 1.112-.9 3.66-3.908 7.653-.413.56-.978 1.29-1.69 2.216-1.358 1.738-2.137 2.87-2.343 3.408-.3.713-.174 1.418.365 2.11v-.003z" fill="#FFF" fill-rule="evenodd"/></svg>

<?xml version="1.0" encoding="UTF-8" standalone="no"?>
<svg width="50px" height="30px" viewBox="0 0 50 30" version="1.1" xmlns="http://www.w3.org/2000/svg" xmlns:xlink="http://www.w3.org/1999/xlink" xmlns:sketch="http://www.bohemiancoding.com/sketch/ns">
    <!-- Generator: Sketch 3.5.1 (25234) - http://www.bohemiancoding.com/sketch -->
    <title>vk</title>
    <desc>Created with Sketch.</desc>
    <defs></defs>
    <g id="Page-1" stroke="none" stroke-width="1" fill="none" fill-rule="evenodd" sketch:type="MSPage">
        <g sketch:type="MSLayerGroup" id="vk" fill="#FFFFFF">
            <path d="M42.386,18.327 C42.679,18.693 43.378,19.405 44.489,20.463 L44.515,20.463 L44.541,20.49 L44.568,20.517 L44.62,20.57 C47.07,22.846 48.726,24.762 49.59,26.326 C49.644,26.413 49.704,26.519 49.764,26.652 C49.824,26.779 49.884,27.012 49.944,27.338 C50.004,27.67 50.004,27.963 49.93,28.223 C49.864,28.483 49.644,28.723 49.278,28.941 C48.918,29.161 48.406,29.268 47.748,29.268 L41.08,29.375 C40.66,29.461 40.175,29.415 39.623,29.242 C39.063,29.07 38.611,28.877 38.265,28.67 L37.745,28.358 C37.227,27.992 36.615,27.438 35.923,26.688 C35.231,25.942 34.633,25.27 34.139,24.671 C33.649,24.071 33.116,23.571 32.549,23.161 C31.984,22.754 31.499,22.621 31.079,22.761 C31.026,22.774 30.959,22.807 30.873,22.847 C30.786,22.893 30.64,23.02 30.427,23.227 C30.221,23.432 30.035,23.692 29.867,23.991 C29.702,24.297 29.555,24.751 29.429,25.349 C29.296,25.949 29.243,26.619 29.256,27.365 C29.256,27.625 29.229,27.865 29.163,28.085 C29.103,28.297 29.043,28.463 28.97,28.563 L28.864,28.696 C28.558,29.022 28.092,29.216 27.487,29.268 L24.492,29.268 C23.262,29.335 21.99,29.195 20.692,28.836 C19.388,28.483 18.244,28.024 17.266,27.458 C16.286,26.893 15.389,26.32 14.584,25.741 C13.779,25.156 13.166,24.657 12.747,24.244 L12.095,23.619 C11.922,23.446 11.682,23.179 11.383,22.833 C11.077,22.487 10.458,21.696 9.52,20.463 C8.582,19.233 7.663,17.923 6.758,16.533 C5.86,15.148 4.795,13.311 3.571,11.043 C2.347,8.766 1.216,6.403 0.171,3.955 C0.065,3.675 0.018,3.442 0.018,3.255 C0.018,3.063 0.038,2.923 0.091,2.837 L0.198,2.677 C0.458,2.351 0.956,2.185 1.682,2.185 L8.816,2.131 C9.029,2.165 9.222,2.225 9.416,2.304 C9.608,2.378 9.748,2.458 9.836,2.524 L9.961,2.604 C10.239,2.79 10.451,3.07 10.585,3.436 C10.938,4.301 11.337,5.199 11.783,6.131 C12.236,7.061 12.595,7.768 12.855,8.254 L13.267,9.004 C13.773,10.05 14.259,10.954 14.731,11.714 C15.197,12.479 15.616,13.078 15.989,13.497 C16.362,13.923 16.729,14.263 17.074,14.502 C17.42,14.749 17.712,14.869 17.959,14.869 C18.199,14.869 18.439,14.823 18.657,14.736 C18.697,14.723 18.737,14.676 18.79,14.61 C18.843,14.536 18.943,14.35 19.102,14.037 C19.255,13.725 19.375,13.312 19.455,12.813 C19.535,12.308 19.615,11.603 19.701,10.703 C19.789,9.799 19.789,8.715 19.701,7.45 C19.669,6.752 19.589,6.12 19.469,5.547 C19.343,4.975 19.223,4.577 19.103,4.349 L18.943,4.037 C18.511,3.444 17.773,3.072 16.733,2.919 C16.508,2.879 16.555,2.672 16.861,2.293 C17.161,1.96 17.486,1.701 17.851,1.508 C18.771,1.055 20.847,0.848 24.074,0.882 C25.498,0.902 26.669,1.014 27.594,1.222 C27.94,1.307 28.234,1.427 28.466,1.572 C28.699,1.72 28.879,1.932 28.998,2.199 C29.118,2.472 29.211,2.745 29.271,3.031 C29.331,3.316 29.364,3.715 29.364,4.214 C29.364,4.72 29.351,5.199 29.338,5.652 C29.318,6.098 29.298,6.712 29.271,7.482 C29.245,8.262 29.231,8.972 29.231,9.632 C29.231,9.825 29.225,10.192 29.205,10.73 C29.191,11.27 29.185,11.682 29.191,11.974 C29.205,12.274 29.231,12.627 29.285,13.032 C29.338,13.438 29.438,13.778 29.585,14.052 C29.73,14.317 29.93,14.53 30.17,14.682 C30.308,14.722 30.455,14.756 30.614,14.789 C30.767,14.823 30.994,14.729 31.294,14.503 C31.586,14.278 31.912,13.978 32.278,13.606 C32.644,13.233 33.098,12.654 33.636,11.862 C34.168,11.069 34.76,10.138 35.406,9.06 C36.444,7.256 37.376,5.3 38.186,3.204 C38.26,3.031 38.346,2.878 38.453,2.744 C38.553,2.618 38.646,2.524 38.74,2.472 L38.84,2.392 C38.873,2.379 38.92,2.359 38.972,2.332 C39.026,2.305 39.139,2.279 39.312,2.252 C39.485,2.226 39.658,2.219 39.832,2.239 L47.33,2.186 C48.01,2.099 48.562,2.119 48.994,2.252 C49.434,2.379 49.699,2.525 49.806,2.678 L49.959,2.944 C50.357,4.056 49.059,6.604 46.052,10.597 C45.639,11.157 45.074,11.887 44.362,12.813 C43.004,14.551 42.225,15.683 42.019,16.221 C41.719,16.933 41.846,17.638 42.385,18.331 L42.386,18.327 Z" sketch:type="MSShapeGroup"></path>
        </g>
    </g>
</svg>
